usr/share/icons/biglinux-icons-material/22/actions/view-financial-account-edit.svg

<svg viewBox="0 0 22 22" xmlns="http://www.w3.org/2000/svg">
    <style type="text/css" id="current-color-scheme">
        .ColorScheme-Text {
            color:#363636;
        }
        .ColorScheme-NegativeText {
            color:#da4453;
        }
    </style>
<path
    d="m5 3v8h-2v1h9v-1h-6v-7h12v8h1v-9h-14zm2 2v1h6v-1h-6zm0 2v1h4v-1h-4zm-4 6v6h9v-6h-9zm14 0-4 4v2h2l4-4-2-2zm-0.310547 1.689453 0.591797 0.591797-2.96875 2.984375v0.015625l-0.59375-0.59375 2.970703-2.998047zm-7.689453 0.310547h2v2h-2v-2zm-5 2h1v1h-1v-1zm2 0h1v1h-1v-1z"
    style="fill:currentColor; fill-opacity:1; stroke:none"
    class="ColorScheme-Text"
    />
<path
    d="m14 5v1h3v-1z"
    style="fill:currentColor; fill-opacity:1; stroke:none"
    class="ColorScheme-NegativeText"
    />
</svg>

<svg xmlns="http://www.w3.org/2000/svg" viewBox="0 0 22 22"><path d="M5 3v8H3v1h9v-1H6V4h12v8h1V3H5zm2 2v1h6V5H7zm0 2v1h4V7H7zm-4 6v6h9v-6H3zm14 0-4 4v2h2l4-4-2-2zm-.31 1.69.591.591-2.968 2.985v.015l-.594-.593 2.97-2.999zM9 15h2v2H9v-2zm-5 2h1v1H4v-1zm2 0h1v1H6v-1z" style="fill:currentColor;fill-opacity:1;stroke:none;color:#dedede"/><path d="M14 5v1h3V5z" style="fill:currentColor;fill-opacity:1;stroke:none;color:#da4453"/></svg>
